img/icon-players.svg

<svg fill="none" height="24" viewBox="0 0 24 24" width="24" xmlns="http://www.w3.org/2000/svg"><g stroke="#fff" stroke-linecap="round" stroke-linejoin="round" stroke-width="2"><path d="m7.66667 11.0013c1.4728 0 2.66663-1.19333 2.66663-2.66666 0-1.47334-1.19383-2.66667-2.66663-2.66667s-2.66667 1.19333-2.66667 2.66667c0 1.47333 1.19387 2.66666 2.66667 2.66666z"/><path d="m12.812 20.1639c.6973-.2333 1.1067-.992.848-1.6786-.9133-2.424-3.248-4.1494-5.99196-4.1494-2.744 0-5.07867 1.7254-5.992 4.1494-.25867.688.15066 1.4466.848 1.6786 1.28266.428 3.04133.8374 5.14533.8374s3.86133-.4094 5.14263-.8374z"/><path d="m15.9999 7.66927c1.4728 0 2.6667-1.19333 2.6667-2.66667 0-1.47333-1.1939-2.66666-2.6667-2.66666s-2.6666 1.19333-2.6666 2.66666c0 1.47334 1.1938 2.66667 2.6666 2.66667z"/><path d="m17.5387 17.585c1.4245-.1371 2.6529-.4346 3.6053-.753.6973-.2333 1.1067-.9921.848-1.6786-.9133-2.4242-3.248-4.1495-5.992-4.1495-1.1189 0-2.1613.3008-3.0762.8053"/></g></svg>

<svg width="24" height="24" viewBox="0 0 24 24" fill="none" xmlns="http://www.w3.org/2000/svg">
<path d="M7.66667 11.0013C9.13947 11.0013 10.3333 9.80797 10.3333 8.33464C10.3333 6.8613 9.13947 5.66797 7.66667 5.66797C6.19387 5.66797 5 6.8613 5 8.33464C5 9.80797 6.19387 11.0013 7.66667 11.0013Z" stroke="white" stroke-width="2" stroke-linecap="round" stroke-linejoin="round"/>
<path d="M12.812 20.1639C13.5093 19.9306 13.9187 19.1719 13.66 18.4853C12.7467 16.0613 10.412 14.3359 7.66804 14.3359C4.92404 14.3359 2.58937 16.0613 1.67604 18.4853C1.41737 19.1733 1.8267 19.9319 2.52404 20.1639C3.8067 20.5919 5.56537 21.0013 7.66937 21.0013C9.77337 21.0013 11.5307 20.5919 12.812 20.1639Z" stroke="white" stroke-width="2" stroke-linecap="round" stroke-linejoin="round"/>
<path d="M15.9999 7.66927C17.4727 7.66927 18.6666 6.47594 18.6666 5.0026C18.6666 3.52927 17.4727 2.33594 15.9999 2.33594C14.5271 2.33594 13.3333 3.52927 13.3333 5.0026C13.3333 6.47594 14.5271 7.66927 15.9999 7.66927Z" stroke="white" stroke-width="2" stroke-linecap="round" stroke-linejoin="round"/>
<path d="M17.5387 17.585C18.9632 17.4479 20.1916 17.1504 21.144 16.832C21.8413 16.5987 22.2507 15.8399 21.992 15.1534C21.0787 12.7292 18.744 11.0039 16 11.0039C14.8811 11.0039 13.8387 11.3047 12.9238 11.8092" stroke="white" stroke-width="2" stroke-linecap="round" stroke-linejoin="round"/>
</svg>
